svg/uf0126-resonance.svg

<svg height="960" style="" width="1200" xmlns="http://www.w3.org/2000/svg"><path d="m120 0v255.36 172.8h172.8a172.8 172.8 0 00172.8-172.8v-159.36h86.4v-96zm528 0v96h86.4v159.36a172.8 172.8 0 00172.8 172.8h172.8v-172.8-255.36zm-528 520.32v172.8 266.88h432v-111.36h-86.4v-155.52a172.8 172.8 0 00-172.8-172.8zm787.2 0a172.8 172.8 0 00-172.8 172.8v155.52h-86.4v111.36h432v-266.88-172.8z" style="stroke-width:1.06667;fill:#ce2a1e"/></svg>

<svg xmlns="http://www.w3.org/2000/svg" width="1200" height="960">
    <path d="M120 0v428.16h172.8a172.8 172.8 0 0 0 172.8-172.8V96H552V0zm528 0v96h86.4v159.36a172.8 172.8 0 0 0 172.8 172.8H1080V0zM120 520.32V960h432V848.64h-86.4V693.12a172.8 172.8 0 0 0-172.8-172.8zm787.2 0a172.8 172.8 0 0 0-172.8 172.8v155.52H648V960h432V520.32z" style="stroke-width:1.06667;fill:#ce2a1e"/>
</svg>
